Sources/FrostedUI/Resources/Icons.xcassets/lightsOff12.imageset/lights-off-12.svg

<svg width="12" height="12" viewBox="0 0 12 12" fill="none" xmlns="http://www.w3.org/2000/svg" data-fui-icon="true">
  <path
    d="M7 10.5C7.41421 10.5 7.75 10.8358 7.75 11.25C7.75 11.6642 7.41421 12 7 12H5C4.58579 12 4.25 11.6642 4.25 11.25C4.25 10.8358 4.58579 10.5 5 10.5H7ZM6 2.25C7.20352 2.25 8.16126 2.709 8.81055 3.43945C9.44749 4.15608 9.75 5.09025 9.75 6C9.75 7.4145 8.78265 8.16612 8.23242 8.48047C8.12789 9.19836 7.51153 9.75 6.76465 9.75H5.23535C4.48842 9.75 3.87107 9.19843 3.7666 8.48047C3.21624 8.16587 2.25 7.41387 2.25 6C2.25 5.09025 2.55251 4.15608 3.18945 3.43945C3.83874 2.709 4.79648 2.25 6 2.25ZM6 3.75C5.2036 3.75 4.66126 4.04106 4.31055 4.43555C3.94757 4.8439 3.75 5.4098 3.75 6C3.75 6.6779 4.24417 7.04736 4.5957 7.22461C4.94338 7.40004 5.2429 7.77113 5.24902 8.25H6.75098C6.7571 7.77113 7.05662 7.40004 7.4043 7.22461C7.75583 7.04736 8.25 6.6779 8.25 6C8.25 5.4098 8.05243 4.8439 7.68945 4.43555C7.33874 4.04106 6.7964 3.75 6 3.75Z"
    fill="currentColor"
  />
</svg>

<svg xmlns="http://www.w3.org/2000/svg" width="12" height="12" fill="none" data-fui-icon="true" viewBox="0 0 12 12"><path fill="currentColor" d="M7 10.5A.75.75 0 0 1 7 12H5a.75.75 0 0 1 0-1.5zM6 2.25c1.204 0 2.161.459 2.81 1.19.637.716.94 1.65.94 2.56 0 1.415-.967 2.166-1.518 2.48a1.484 1.484 0 0 1-1.467 1.27h-1.53a1.485 1.485 0 0 1-1.468-1.27C3.217 8.166 2.25 7.414 2.25 6c0-.91.303-1.844.94-2.56.649-.731 1.606-1.19 2.81-1.19m0 1.5c-.796 0-1.339.291-1.69.686-.362.408-.56.974-.56 1.564 0 .678.494 1.047.846 1.225.347.175.647.546.653 1.025h1.502c.006-.479.306-.85.653-1.025.352-.178.846-.547.846-1.225 0-.59-.198-1.156-.56-1.564C7.338 4.04 6.795 3.75 6 3.75"/></svg>
